public/avatar/body/104.svg

<svg xmlns:xlink="http://www.w3.org/1999/xlink" height="82" width="84.85" xmlns="http://www.w3.org/2000/svg"><g transform="translate(37.4 42.25)"><use height="38" transform="translate(-11.95 -17.45)" width="32.05" xlink:href="#a"/><use height="38.95" transform="translate(-12.45 -17.95)" width="33.05" xlink:href="#b"/><use height="21.55" transform="translate(-13.45 -.65)" width="35.25" xlink:href="#c"/></g><defs><path d="M27.35 7.4q2.15 4.15 3.55 8.75 1.45 4.7 1.15 9.5-.35 4.95-4.2 8.1-3.8 3.2-8.75 4.05l-2.6.2q-3.6 0-7.05-1.15-4.65-1.6-7.1-5.5Q-.2 27.4.05 23q.2-4.4 2-9.3Q3.85 8.75 7 5.05 10.1 1.3 14.7.1l1.8-.1q1.9.05 3.7.8 4.75 2.05 7.15 6.6" fill="#fcd5a9" fill-rule="evenodd" transform="translate(-.05)" id="d"/><path d="M27.35 7.4Q24.95 2.85 20.2.8 17.55-.3 14.7.1 10.1 1.3 7 5.05q-3.15 3.7-4.95 8.65-1.8 4.9-2 9.3-.25 4.4 2.3 8.35 2.45 3.9 7.1 5.5 4.65 1.55 9.65.95 4.95-.85 8.75-4.05 3.85-3.15 4.2-8.1.3-4.8-1.15-9.5-1.4-4.6-3.55-8.75Z" fill="none" stroke="#0f0f0f" stroke-linecap="round" stroke-linejoin="round" transform="translate(.45 .5)" id="e"/><use height="38" width="32.05" xlink:href="#d" id="a"/><use height="38.95" width="33.05" xlink:href="#e" id="b"/><g id="c"><path d="m27.75 3.45-2.4 2.7q-1.1 1.65-2.2 2.7-2.1 1.95-5.4 1.95-3.35 0-5.3-1.85-1.7-2.15-2.5-2.8-2-3-5.05-4.85-2.3-1.35-3.55.65-1.05 1.7-.25 5.1 1.05 4.75 1.45 5.35.7 1.05 1.25 2.95.55 1.8 1.05 2.45.8 1.1 4.75 2l8.05.95v.05l.05-.05 3.65-.3.5-.1 1.05.05 3.95-.45q1.65-.3 3.35-1.5.9-.65 1.45-4.3.45-1.4 1.55-3.5.6-1.15.2-2.05-.4-.85.2-1.9 1.7-3.05.25-4.5L32.45.85l-1.85.1Q28.9 2 27.75 3.45Z" fill="none" stroke="#000" stroke-linecap="round" stroke-linejoin="round" stroke-width="1.5"/><path d="M20.15 6.05q-.55.8-.2 1.75.4 1.05-.2 2.2-2.15 4.1-1.8 4.85l-1.6.5q-4.1 4.7-12.1 4.75l-.05.05v-.05l-8.05-.95q-3.95-.9-4.75-2-.5-.65-1.05-2.45-.55-1.9-1.25-2.95-.7-1.05-1.45-5.35-.7-4.35.8-5.2l.8-.7 2.2.15Q-5.5 2.5-3.5 5.5q.8.65 2.5 2.8 1.95 1.85 5.3 1.85 3.3 0 5.4-1.95 1.1-1.05 2.2-2.7l2.4-2.7q1.15-1.45 2.85-2.5l1.6-.1 1.35 1.3q1.2.95.05 4.55" fill="red" fill-rule="evenodd" transform="translate(13.45 .65)"/><path d="M-8.8 1.15-12 4.5" fill="none" stroke="#fff" stroke-linecap="round" stroke-linejoin="round" transform="translate(13.45 .65)"/><path d="M18.85 11.2q-1.15 5.55-2.45 6.45-2.3 1.6-4.4 1.85-3.35.9-5 .65-1.5-.2-1.35-2.1.1-1.5 2.25-4.8 1.15-2.3 1.9-3.1l3.1-3.6 3.45-2.7q2.55-1.5 3.9.2.4.45-.25 2.75l-1.15 4.4" fill="#d90000" fill-rule="evenodd" transform="translate(13.45 .65)"/><path d="m19 .15-1.5-.1q-1.35.5-2.6 2.1L11.75 5.8 9 8.4q-2.25 1.75-4.7 1.75-3.85 0-7.4-4-1.5-2-3.5-3.85Q-7.85 1.1-9.55.5L-11 .15" fill="none" stroke="#8f1d14" stroke-linecap="round" stroke-linejoin="round" transform="translate(13.45 .65)"/><path d="m16.1 7.05.25 5.25q0 1.05-.75 2-.9 1.05-2.1 1.05-2.35 0-2.65-2.55l.15-5 5.1-.75" fill="#fff" fill-rule="evenodd" transform="translate(13.45 .65)"/><path d="m11 7.8 5.1-.75.05 1.45-5.25.55.1-1.25" fill="#6479cc" fill-rule="evenodd" transform="translate(13.45 .65)"/><path d="m-8.3 8.4 2.75-.65 2.75.9-2.7 1-2.8-1.25" fill="#fff" fill-rule="evenodd" transform="translate(13.45 .65)"/><path d="m11.75 10.35 3.85-.5m-3.9 2.55 3.8-.5M13 14.15l1.75-.15" fill="none" stroke="#374370" stroke-linecap="round" stroke-linejoin="round" transform="translate(13.45 .65)"/><path d="m-6.4 12 1.2-.2q1.3-.1 1.75.3.75.65-2.75 4.55" fill="none" stroke="#ffd078" stroke-linecap="round" stroke-linejoin="round" transform="translate(13.45 .65)"/></g></defs></svg>

<?xml version="1.0" encoding="UTF-8" standalone="no"?>
<svg xmlns:xlink="http://www.w3.org/1999/xlink" height="82.0px" width="84.85px" xmlns="http://www.w3.org/2000/svg">
  <g transform="matrix(1.0, 0.0, 0.0, 1.0, 37.4, 42.25)">
    <use height="38.0" transform="matrix(1.0, 0.0, 0.0, 1.0, -11.95, -17.45)" width="32.05" xlink:href="#sprite0"/>
    <use height="38.95" transform="matrix(1.0, 0.0, 0.0, 1.0, -12.45, -17.95)" width="33.05" xlink:href="#sprite1"/>
    <use height="21.55" transform="matrix(1.0, 0.0, 0.0, 1.0, -13.45, -0.65)" width="35.25" xlink:href="#shape2"/>
  </g>
  <defs>
    <g id="sprite0" transform="matrix(1.0, 0.0, 0.0, 1.0, -0.05, 0.0)">
      <use height="38.0" transform="matrix(1.0, 0.0, 0.0, 1.0, 0.05, 0.0)" width="32.05" xlink:href="#shape0"/>
    </g>
    <g id="shape0" transform="matrix(1.0, 0.0, 0.0, 1.0, -0.05, 0.0)">
      <path d="M27.35 7.4 Q29.5 11.55 30.9 16.15 32.35 20.85 32.05 25.65 31.7 30.6 27.85 33.75 24.05 36.95 19.1 37.8 L16.5 38.0 Q12.9 38.0 9.45 36.85 4.8 35.25 2.35 31.35 -0.2 27.4 0.05 23.0 0.25 18.6 2.05 13.7 3.85 8.75 7.0 5.05 10.1 1.3 14.7 0.1 L16.5 0.0 Q18.4 0.05 20.2 0.8 24.95 2.85 27.35 7.4" fill="#fcd5a9" fill-rule="evenodd" stroke="none"/>
    </g>
    <g id="sprite1" transform="matrix(1.0, 0.0, 0.0, 1.0, 0.45, 0.5)">
      <use height="38.95" transform="matrix(1.0, 0.0, 0.0, 1.0, -0.45, -0.5)" width="33.05" xlink:href="#shape1"/>
    </g>
    <g id="shape1" transform="matrix(1.0, 0.0, 0.0, 1.0, 0.45, 0.5)">
      <path d="M27.35 7.4 Q24.95 2.85 20.2 0.8 17.55 -0.3 14.7 0.1 10.1 1.3 7.0 5.05 3.85 8.75 2.05 13.7 0.25 18.6 0.05 23.0 -0.2 27.4 2.35 31.35 4.8 35.25 9.45 36.85 14.1 38.4 19.1 37.8 24.05 36.95 27.85 33.75 31.7 30.6 32.05 25.65 32.35 20.85 30.9 16.15 29.5 11.55 27.35 7.4 Z" fill="none" stroke="#0f0f0f" stroke-linecap="round" stroke-linejoin="round" stroke-width="1.0"/>
    </g>
    <g id="shape2" transform="matrix(1.0, 0.0, 0.0, 1.0, 13.45, 0.65)">
      <path d="M14.3 2.8 L11.9 5.5 Q10.8 7.15 9.7 8.2 7.6 10.15 4.3 10.15 0.95 10.15 -1.0 8.3 -2.7 6.15 -3.5 5.5 -5.5 2.5 -8.55 0.65 -10.85 -0.7 -12.1 1.3 -13.15 3.0 -12.35 6.4 -11.3 11.15 -10.9 11.75 -10.2 12.8 -9.65 14.7 -9.1 16.5 -8.6 17.15 -7.8 18.25 -3.85 19.15 L4.2 20.1 4.2 20.15 4.25 20.1 7.9 19.8 8.4 19.7 9.45 19.75 13.4 19.3 Q15.05 19.0 16.75 17.8 17.65 17.15 18.2 13.5 18.65 12.1 19.75 10.0 20.35 8.85 19.95 7.95 19.55 7.1 20.15 6.05 21.85 3.0 20.4 1.55 L19.0 0.2 17.15 0.3 Q15.45 1.35 14.3 2.8 Z" fill="none" stroke="#000000" stroke-linecap="round" stroke-linejoin="round" stroke-width="1.5"/>
      <path d="M20.15 6.05 Q19.6 6.85 19.95 7.8 20.35 8.85 19.75 10.0 17.6 14.1 17.95 14.85 L16.35 15.35 Q12.25 20.05 4.25 20.1 L4.2 20.15 4.2 20.1 -3.85 19.15 Q-7.8 18.25 -8.6 17.15 -9.1 16.5 -9.65 14.7 -10.2 12.8 -10.9 11.75 -11.6 10.7 -12.35 6.4 -13.05 2.05 -11.55 1.2 L-10.75 0.5 -8.55 0.65 Q-5.5 2.5 -3.5 5.5 -2.7 6.15 -1.0 8.3 0.95 10.15 4.3 10.15 7.6 10.15 9.7 8.2 10.8 7.15 11.9 5.5 L14.3 2.8 Q15.45 1.35 17.15 0.3 L18.75 0.2 20.1 1.5 Q21.3 2.45 20.15 6.05" fill="#ff0000" fill-rule="evenodd" stroke="none"/>
      <path d="M-8.8 1.15 L-12.0 4.5" fill="none" stroke="#ffffff" stroke-linecap="round" stroke-linejoin="round" stroke-width="1.0"/>
      <path d="M18.85 11.2 Q17.7 16.75 16.4 17.65 14.1 19.25 12.0 19.5 8.65 20.4 7.0 20.15 5.5 19.95 5.65 18.05 5.75 16.55 7.9 13.25 9.05 10.95 9.8 10.15 L12.9 6.55 16.35 3.85 Q18.9 2.35 20.25 4.05 20.65 4.5 20.0 6.8 L18.85 11.2" fill="#d90000" fill-rule="evenodd" stroke="none"/>
      <path d="M19.0 0.15 L17.5 0.05 Q16.15 0.55 14.9 2.15 L11.75 5.8 9.0 8.4 Q6.75 10.15 4.3 10.15 0.45 10.15 -3.1 6.15 -4.6 4.15 -6.6 2.3 -7.85 1.1 -9.55 0.5 L-11.0 0.15" fill="none" stroke="#8f1d14" stroke-linecap="round" stroke-linejoin="round" stroke-width="1.0"/>
      <path d="M16.1 7.05 L16.35 12.3 Q16.35 13.35 15.6 14.3 14.7 15.35 13.5 15.35 11.15 15.35 10.85 12.8 L11.0 7.8 16.1 7.05" fill="#ffffff" fill-rule="evenodd" stroke="none"/>
      <path d="M11.0 7.8 L16.1 7.05 16.15 8.5 10.9 9.05 11.0 7.8" fill="#6479cc" fill-rule="evenodd" stroke="none"/>
      <path d="M-8.3 8.4 L-5.55 7.75 -2.8 8.65 -5.5 9.65 -8.3 8.4" fill="#ffffff" fill-rule="evenodd" stroke="none"/>
      <path d="M11.75 10.35 L15.6 9.85" fill="none" stroke="#374370" stroke-linecap="round" stroke-linejoin="round" stroke-width="1.0"/>
      <path d="M11.7 12.4 L15.5 11.9" fill="none" stroke="#374370" stroke-linecap="round" stroke-linejoin="round" stroke-width="1.0"/>
      <path d="M13.0 14.15 L14.75 14.0" fill="none" stroke="#374370" stroke-linecap="round" stroke-linejoin="round" stroke-width="1.0"/>
      <path d="M-6.4 12.0 L-5.2 11.8 Q-3.9 11.7 -3.45 12.1 -2.7 12.75 -6.2 16.65" fill="none" stroke="#ffd078" stroke-linecap="round" stroke-linejoin="round" stroke-width="1.0"/>
    </g>
  </defs>
</svg>
